X: 071
T: Murphy Delaney
%R: jig
Z: 2014 John Chambers <jc:trillian.mit.edu>
B: Thompson "Twenty four Country Dances for the Year 1805" p.7 #1
F: http://folkopedia.efdss.org/images/2/2a/Thompson_24_1805.PDF 2014-8-13
M: 6/8
L: 1/8
K: Bb
|:\
{c}B>AB {c}B>AB | {c}B>AB def | fdB BAB | GcB AGF |\
{c}B>AB {c}B>AB | {c}B>AB def | gab fed | cdB AGF :|
|:\
def fgf | fgf fed | efg gag | gag gfe |\
def fgf | fgf fga | bag fed | cdB AGF :|
% - - - - - - - - - - - - - - - - - - - - - - - - -
%%begintext align
%% First lady turn the 2d Gent: 1st Gent:
%% turn the 2d lady 1st & 2d Cu: La Poussett,
%% lead down the middle up again, right & left
%% at top.
%%endtext
% - - - - - - - - - - - - - - - - - - - - - - - - -
